icons/core/heart-fill.svg

<svg width="32" height="32" viewBox="0 0 32 32" xmlns="http://www.w3.org/2000/svg"><path fill-rule="evenodd" clip-rule="evenodd" d="M10 4.00003C5.58172 4.00003 2 7.58175 2 12C2 14.1795 2.87283 16.157 4.28575 17.5989L4.28967 17.6029L15.2897 28.7039L16 29.4208L16.7103 28.7039L27.7103 17.6029L27.7142 17.5989C29.1272 16.157 30 14.1795 30 12C30 7.58175 26.4183 4.00003 22 4.00003C20.4589 4.00003 19.1136 4.60552 18.0113 5.3429C17.2517 5.85102 16.5749 6.4444 16 6.9917C15.4252 6.4444 14.7483 5.85102 13.9887 5.3429C12.8864 4.60552 11.5411 4.00003 10 4.00003Z"/></svg>

<svg viewBox="0 0 32 32" xmlns="http://www.w3.org/2000/svg"><path fill-rule="evenodd" d="M10 4a8 8 0 00-5.714 13.599l.004.004 11 11.1.71.718.71-.717 11-11.101.004-.004A8 8 0 0022 4c-1.541 0-2.886.606-3.989 1.343-.76.508-1.436 1.101-2.011 1.649-.575-.548-1.252-1.141-2.011-1.65C12.886 4.607 11.54 4 10 4z"/></svg>
